src/assets/images/phone.svg

<svg fill="none" height="481" viewBox="0 0 271 481" width="271" xmlns="http://www.w3.org/2000/svg" xmlns:xlink="http://www.w3.org/1999/xlink"><clipPath id="a"><path d="m0 0h270.339v480.797h-270.339z"/></clipPath><g clip-path="url(#a)"><path d="m238.507 0c1.628.498693 3.256 1.01621 4.893 1.48667 16.25 4.66702 26.92 19.02563 26.93 36.49873.028 88.4476.009 176.8856.009 265.3336 0 46.021.009 92.041 0 138.062 0 23.797-15.582 39.407-39.35 39.416-63.88.009-127.759.009-191.6298 0-23.7774-.009-39.3592-15.629-39.3592-39.425 0-133.678 0-267.366 0-401.0437 0-21.3309 9.87037-34.09934 30.5991-39.660239.4422-.122321.828-.442238 1.2326-.668061zm-163.8065 14.9232c-12.2321 0-24.3983-.0188-36.574.0094-13.794.0282-23.3162 9.5034-23.3162 23.2598-.0095 134.9016-.0095 269.8026 0 404.7036 0 13.493 9.5504 23.072 23.0245 23.081 64.8022.029 129.6042.019 194.4062 0 13.766 0 23.25-9.522 23.269-23.307.028-22.535.009-45.07.009-67.605 0-112.206 0-224.422-.009-336.628 0-14.0763-9.447-23.4762-23.542-23.5138-5.787-.0188-11.583 0-17.379 0-6.361 0-12.722 0-19.468 0 0 3.5567.141 6.5112-.028 9.4469-.678 11.7993-8.713 21.0298-21.783 20.7664-25.819-.5175-51.648-.1412-77.4761-.16-10.3597-.0094-17.6519-5.6268-19.769-15.7606-.9033-4.4035-.8845-8.9953-1.3644-14.2927zm15.2714.2446c0 2.6911-.0377 5.1563.0094 7.6121.1129 6.0502 1.4678 7.3769 7.4992 7.3769 23.3065.0095 46.6045 0 69.9115 0 11.95 0 13.38 2.2959 12.937-13.6058-.009-.4234-.263-.8469-.451-1.3926-29.865.0094-59.646.0094-89.9061.0094z" fill="#000"/><g fill="#fff"><path d="m74.7006 14.9232c.4799 5.3069.4517 9.8986 1.3738 14.2928 2.1171 10.1338 9.4093 15.7512 19.769 15.7606 25.8286.0094 51.6576-.3576 77.4766.1599 13.079.2635 21.105-8.967 21.782-20.7663.17-2.9357.028-5.8902.028-9.447h19.468c5.787 0 11.583-.0094 17.379 0 14.105.0377 23.542 9.4282 23.542 23.5139.01 112.2059.01 224.4219.01 336.6279 0 22.535.019 45.07-.01 67.606-.018 13.784-9.503 23.306-23.269 23.306-64.802.019-129.604.019-194.4056 0-13.4648-.009-23.0246-9.588-23.0246-23.081-.0188-134.901-.0188-269.802 0-404.7035 0-13.7564 9.5222-23.2316 23.3163-23.2598 12.1662-.0377 24.3324-.0095 36.5645-.0095z"/><path d="m89.9718 15.1677h89.8962c.179.5552.433.9692.452 1.3926.442 15.9017-.988 13.6059-12.938 13.6059-23.307 0-46.604 0-69.911 0-6.0313 0-7.3863-1.3362-7.4992-7.3769-.0376-2.4653 0-4.9305 0-7.6216z"/></g></g></svg>

<svg width="271" height="481" viewBox="0 0 271 481" fill="none" xmlns="http://www.w3.org/2000/svg">
    <g clip-path="url(#clip0)">
        <path
            d="M238.507 0C240.135 0.498693 241.763 1.01621 243.4 1.48667C259.65 6.15369 270.32 20.5123 270.33 37.9854C270.358 126.433 270.339 214.871 270.339 303.319C270.339 349.34 270.348 395.36 270.339 441.381C270.339 465.178 254.757 480.788 230.989 480.797C167.109 480.806 103.23 480.806 39.3592 480.797C15.5818 480.788 0 465.168 0 441.372C0 307.694 0 174.006 0 40.3283C0 18.9974 9.87037 6.22896 30.5991 0.668061C31.0413 0.54574 31.4271 0.225823 31.8317 0C100.727 0 169.612 0 238.507 0ZM74.7005 14.9232C62.4684 14.9232 50.3022 14.9044 38.1265 14.9326C24.3325 14.9608 14.8103 24.436 14.8103 38.1924C14.8008 173.094 14.8008 307.995 14.8103 442.896C14.8103 456.389 24.3607 465.968 37.8348 465.977C102.637 466.006 167.439 465.996 232.241 465.977C246.007 465.977 255.491 456.455 255.51 442.67C255.538 420.135 255.519 397.6 255.519 375.065C255.519 262.859 255.519 150.643 255.51 38.437C255.51 24.3607 246.063 14.9608 231.968 14.9232C226.181 14.9044 220.385 14.9232 214.589 14.9232C208.228 14.9232 201.867 14.9232 195.121 14.9232C195.121 18.4799 195.262 21.4344 195.093 24.3701C194.415 36.1694 186.38 45.3999 173.31 45.1365C147.491 44.619 121.662 44.9953 95.8339 44.9765C85.4742 44.9671 78.182 39.3497 76.0649 29.2159C75.1616 24.8124 75.1804 20.2206 74.7005 14.9232ZM89.9719 15.1678C89.9719 17.8589 89.9342 20.3241 89.9813 22.7799C90.0942 28.8301 91.4491 30.1568 97.4805 30.1568C120.787 30.1663 144.085 30.1568 167.392 30.1568C179.342 30.1568 180.772 32.4527 180.329 16.551C180.32 16.1276 180.066 15.7041 179.878 15.1584C150.013 15.1678 120.232 15.1678 89.9719 15.1678Z"
            fill="black" />
        <path
            d="M74.7006 14.9232C75.1805 20.2301 75.1523 24.8218 76.0744 29.216C78.1915 39.3498 85.4837 44.9672 95.8434 44.9766C121.672 44.986 147.501 44.619 173.32 45.1365C186.399 45.4 194.425 36.1695 195.102 24.3702C195.272 21.4345 195.13 18.48 195.13 14.9232C201.877 14.9232 208.238 14.9232 214.598 14.9232C220.385 14.9232 226.181 14.9138 231.977 14.9232C246.082 14.9609 255.519 24.3514 255.519 38.4371C255.529 150.643 255.529 262.859 255.529 375.065C255.529 397.6 255.548 420.135 255.519 442.671C255.501 456.455 246.016 465.977 232.25 465.977C167.448 465.996 102.646 465.996 37.8444 465.977C24.3796 465.968 14.8198 456.389 14.8198 442.896C14.801 307.995 14.801 173.094 14.8198 38.1925C14.8198 24.4361 24.342 14.9609 38.1361 14.9327C50.3023 14.895 62.4685 14.9232 74.7006 14.9232Z"
            fill="white" />
        <path
            d="M89.9718 15.1677C120.232 15.1677 150.022 15.1677 179.868 15.1677C180.047 15.7229 180.301 16.1369 180.32 16.5603C180.762 32.462 179.332 30.1662 167.382 30.1662C144.075 30.1662 120.778 30.1662 97.471 30.1662C91.4397 30.1662 90.0847 28.83 89.9718 22.7893C89.9342 20.324 89.9718 17.8588 89.9718 15.1677Z"
            fill="white" />
    </g>
    <defs>
        <clipPath id="clip0">
            <rect width="270.339" height="480.797" fill="white" />
        </clipPath>
    </defs>
</svg>
